X: 36713
T: Sheelin Side
R: reel
M: 4/4
K: Fmajor
BFF/F/F F3 G|BFBc d2 dc|BFF/F/F F3 D|FGFD CDGc
BFF/F/F F3 G|BFBc d2 cB|c3 c3 Bc|1 dBB/B/B B3 c:|2 dBB/B/B BBcB||
|:G3G BGFD|FGGG BGFD|B,3C DFz3|B,3C DFFD|
G3G BGFD|FGGG BGFD|B,3C DFFD|1 d2 cB cBAB:|2 d2 cB cBAc||

